src/_assets/sidebar/archived-icon.svg

<svg width="24" height="24" viewBox="0 0 24 24" fill="none" xmlns="http://www.w3.org/2000/svg">
<path d="M3 11.0264V11.0264C3 11.8103 3 12.2022 3.10837 12.5179C3.30869 13.1014 3.76709 13.5598 4.3506 13.7601C4.66626 13.8685 5.05821 13.8685 5.84211 13.8685H6.482C6.99513 13.8685 7.25169 13.8685 7.46251 13.9737C7.55922 14.0219 7.64746 14.0855 7.72381 14.162C7.89026 14.3287 7.97139 14.5721 8.13366 15.0589L8.22836 15.343C8.44837 16.0031 8.55837 16.3331 8.82026 16.5218C9.08215 16.7106 9.43001 16.7106 10.1257 16.7106H12.9269C13.6226 16.7106 13.9705 16.7106 14.2324 16.5218C14.4943 16.3331 14.6043 16.0031 14.8243 15.343L14.919 15.0589C15.0812 14.5721 15.1624 14.3287 15.3288 14.162C15.4052 14.0855 15.4934 14.0219 15.5901 13.9737C15.8009 13.8685 16.0575 13.8685 16.5706 13.8685H17.2105C17.9944 13.8685 18.3864 13.8685 18.702 13.7601C19.2855 13.5598 19.7439 13.1014 19.9443 12.5179C20.0526 12.2022 20.0526 11.8103 20.0526 11.0264V11.0264" stroke="#485F7D" stroke-width="1.6"/>
<path d="M7.73682 9.13153L11.5263 11.9736M11.5263 11.9736L15.3158 9.13153M11.5263 11.9736L11.5263 2.49995" stroke="#485F7D" stroke-width="1.6" stroke-linecap="round" stroke-linejoin="round"/>
<path d="M15.3158 5.34229H16.0526C17.9382 5.34229 18.8811 5.34229 19.4668 5.92807C20.0526 6.51386 20.0526 7.45667 20.0526 9.34228V16.5002C20.0526 18.3858 20.0526 19.3286 19.4668 19.9144C18.8811 20.5002 17.9382 20.5002 16.0526 20.5002H7C5.11438 20.5002 4.17157 20.5002 3.58579 19.9144C3 19.3286 3 18.3858 3 16.5002V9.34228C3 7.45667 3 6.51386 3.58579 5.92807C4.17157 5.34229 5.11438 5.34229 7 5.34229H7.73684" stroke="#485F7D" stroke-width="1.6" stroke-linecap="round"/>
</svg>

<svg xmlns="http://www.w3.org/2000/svg" width="24" height="24" fill="none"><path stroke="#485F7D" stroke-width="1.6" d="M3 11.026c0 .784 0 1.176.108 1.492a2 2 0 001.243 1.242c.315.108.707.108 1.491.108h.64c.513 0 .77 0 .98.106a1 1 0 01.262.188c.166.167.247.41.41.897l.094.284c.22.66.33.99.592 1.179s.61.189 1.306.189h2.8c.697 0 1.044 0 1.306-.19.262-.188.372-.518.592-1.178l.095-.284c.162-.487.243-.73.41-.897a1 1 0 01.261-.188c.21-.106.468-.106.98-.106h.64c.784 0 1.176 0 1.492-.108a2 2 0 001.242-1.242c.109-.316.109-.708.109-1.492"/><path stroke="#485F7D" stroke-linecap="round" stroke-linejoin="round" stroke-width="1.6" d="M7.737 9.132l3.79 2.842m0 0l3.789-2.842m-3.79 2.842V2.5"/><path stroke="#485F7D" stroke-linecap="round" stroke-width="1.6" d="M15.316 5.342h.737c1.885 0 2.828 0 3.414.586s.586 1.529.586 3.414V16.5c0 1.886 0 2.829-.586 3.414-.586.586-1.529.586-3.414.586H7c-1.886 0-2.828 0-3.414-.586C3 19.33 3 18.386 3 16.5V9.342c0-1.885 0-2.828.586-3.414S5.114 5.342 7 5.342h.737"/></svg>
